X:354
T: GLUECK AUF DER BERGMANN KOMMT
N: E1512A
O: Europa, Mitteleuropa, Deutschland, Hessen, Wetterau
R: Staende -, Bergmanns - Lied
M: 3/4
L: 1/16
K: G
D2E2F2 | G6D2E2F2 | G4z4
G2A2 | B4B4B4A2B2 | c4A3AA4
A2B2 | c4e4e4d2c2 | d4B3BB4
d2c2 | B8A8 | B2A2B2e2d4
d2c2 | B8A8 | G8z2

